icons/desktop/16/svg/audio-16.svg

<svg width="16" height="16" viewBox="0 0 16 16" fill="none" xmlns="http://www.w3.org/2000/svg">
<path d="M9.75684 1.82546C9.821 1.41365 10.2063 1.13159 10.6182 1.19557C13.7011 1.92662 16 4.6933 16 8.00026C15.9998 11.3071 13.7049 14.071 10.6211 14.803C10.2091 14.867 9.82384 14.588 9.75977 14.176C9.69578 13.7641 9.97782 13.3789 10.3896 13.3147C12.7625 12.7057 14.5008 10.5601 14.501 8.00026C14.501 5.44026 12.7597 3.29579 10.3867 2.68679C9.97486 2.62266 9.69285 2.23737 9.75684 1.82546Z" fill="black"/>
<path d="M4.89648 2.15847C5.75671 0.69412 8 1.30439 8 3.00319V12.9973C7.99959 14.6958 5.75657 15.3055 4.89648 13.8411L3.2168 10.9817C3.09385 10.9847 2.94696 11.0003 2.83203 11.0003C2.36403 11.0003 1.92267 10.9758 1.51367 10.9358C0.653835 10.8507 0 10.1346 0 9.27175V6.72585C1.06646e-05 5.88489 0.626927 5.15467 1.46387 5.06862C1.96687 5.01762 2.42703 5.00026 2.83203 5.00026C2.96592 5.00026 3.09082 5.00798 3.2207 5.01198L4.89648 2.15847Z" fill="black"/>
<path d="M10.0664 4.40261C11.6183 4.8617 12.75 6.2984 12.75 7.99929C12.7498 9.69998 11.6181 11.1359 10.0664 11.595C9.90842 11.642 9.75002 11.5129 9.75 11.3489V4.64968C9.75012 4.48576 9.90947 4.35562 10.0664 4.40261Z" fill="black"/>
</svg>

<!-- This Source Code Form is subject to the terms of the Mozilla Public
   - License, v. 2.0. If a copy of the MPL was not distributed with this
   - file, You can obtain one at http://mozilla.org/MPL/2.0/. -->
<svg xmlns="http://www.w3.org/2000/svg" width="16" height="16" fill="context-fill" fill-opacity="context-fill-opacity" viewBox="0 0 16 16">
    <path d="M9.757 1.825a.755.755 0 0 1 .861-.63C13.701 1.928 16 4.694 16 8a6.995 6.995 0 0 1-5.379 6.803.752.752 0 1 1-.231-1.488A5.48 5.48 0 0 0 14.5 8a5.48 5.48 0 0 0-4.114-5.313.754.754 0 0 1-.63-.862M4.896 2.158C5.756.694 8 1.304 8 3.003v9.994c0 1.699-2.243 2.309-3.104.844l-1.68-2.86c-.122.004-.269.02-.384.02-.468 0-.91-.025-1.318-.065A1.67 1.67 0 0 1 0 9.272V6.726c0-.841.627-1.571 1.464-1.657C1.967 5.018 2.427 5 2.832 5c.134 0 .259.008.389.012z" />
    <path d="M10.066 4.403a3.751 3.751 0 0 1 0 7.192c-.158.047-.316-.082-.316-.246v-6.7c0-.163.16-.293.316-.246" />
</svg>
